svg-icons/octicons/hubot.svg

<svg viewBox="0 0 14 16" xmlns="http://www.w3.org/2000/svg">
  <path d="M3 6c-0.55 0-1 0.45-1 1v2c0 0.55 0.45 1 1 1h8c0.55 0 1-0.45 1-1V7c0-0.55-0.45-1-1-1H3z m8 1.75l-1.25 1.25h-1.5l-1.25-1.25-1.25 1.25h-1.5l-1.25-1.25v-0.75h0.75l1.25 1.25 1.25-1.25h1.5l1.25 1.25 1.25-1.25h0.75v0.75zM5 11h4v1H5v-1z m2-9C3.14 2 0 4.91 0 8.5v4.5c0 0.55 0.45 1 1 1h12c0.55 0 1-0.45 1-1V8.5c0-3.59-3.14-6.5-7-6.5z m6 11H1V8.5c0-3.09 2.64-5.59 6-5.59s6 2.5 6 5.59v4.5z" />
</svg>

<svg xmlns="http://www.w3.org/2000/svg" viewBox="0 0 14 16"><path d="M3 6c-.55 0-1 .45-1 1v2c0 .55.45 1 1 1h8c.55 0 1-.45 1-1V7c0-.55-.45-1-1-1H3zm8 1.75L9.75 9h-1.5L7 7.75 5.75 9h-1.5L3 7.75V7h.75L5 8.25 6.25 7h1.5L9 8.25 10.25 7H11v.75zM5 11h4v1H5v-1zm2-9C3.14 2 0 4.91 0 8.5V13c0 .55.45 1 1 1h12c.55 0 1-.45 1-1V8.5C14 4.91 10.86 2 7 2zm6 11H1V8.5c0-3.09 2.64-5.59 6-5.59s6 2.5 6 5.59V13z"/></svg>
